theme-map4trip/src/main/assets/themes/mapsforgeV3/map4trip/symbols/hostel.svg

<svg enable-background="new 0 0 23.5 18.1" height="18.1" viewBox="0 0 23.5 18.1" width="23.5" xmlns="http://www.w3.org/2000/svg"><path d="m6.2 4.2h10.8v11.5h-10.8z" fill="#f4f4f4" stroke="#ba2e2e"/><path d="m4.1 17.3v-9.4l-.6.3-2-2 10.2-5.4 10.1 5.4-2 2.1-.8-.4v9.3h-14.9zm12-2.8.1-7.6-4.6-2.3-4.7 2.2v7.6z" fill="#ba2e2e"/><path d="m11.6 1.3 9.3 5-1.3 1.3-1.1-.5v9.6h-13.9v-9.6l-1 .5-1.3-1.3zm5 13.7.1-8.4-5.1-2.5-5.2 2.4v8.4zm-5-14.8-.5.3-9.3 5-1.2.5 1 1 1.3 1.3.5.5.3-.1v8.1 1h1 13.9 1v-1-8.1l.3.1.5-.5 1.2-1.3.9-1-1.2-.6-9.3-5zm-4.2 6.9 4.2-1.9 4.1 2v6.8h-8.2z" fill="#f4f4f4"/><path d="m4 17.2v-9.4l-.6.3-2-2 10.2-5.4 10.1 5.4-2 2.1-.7-.3v9.3zm11.9-3v-7.5l-4.5-2.2-4.4 2.2v7.5z" fill="#ba2e2e"/><path d="m11.5 1.2 9.3 5-1.3 1.3-1.1-.5v9.6h-13.9v-9.5l-1 .4-1.3-1.3zm4.9 13.6v-8.3l-4.9-2.5-5 2.3v8.4zm-4.9-14.7-.5.3-9.3 5-1.2.6 1 1 1.3 1.3.5.5.3-.1v8.1 1h1 13.9 1v-1-8.2l.3.1.5-.5 1.3-1.3.9-1-1.2-.6-9.3-5zm-4 6.9 4-1.9 4 2v6.7h-7.9z" fill="#f4f4f4"/></svg>

<?xml version="1.0" encoding="utf-8"?>
<!-- Generator: Adobe Illustrator 14.0.0, SVG Export Plug-In . SVG Version: 6.00 Build 43363)  -->
<!DOCTYPE svg PUBLIC "-//W3C//DTD SVG 1.0//EN" "http://www.w3.org/TR/2001/REC-SVG-20010904/DTD/svg10.dtd">
<svg version="1.0"
	 id="svg5567" xmlns:rdf="http://www.w3.org/1999/02/22-rdf-syntax-ns#" xmlns:svg="http://www.w3.org/2000/svg" xmlns:cc="http://creativecommons.org/ns#" xmlns:dc="http://purl.org/dc/elements/1.1/"
	 xmlns="http://www.w3.org/2000/svg" xmlns:xlink="http://www.w3.org/1999/xlink" x="0px" y="0px" width="23.5px" height="18.1px"
	 viewBox="0 0 23.5 18.1" style="enable-background:new 0 0 23.5 18.1;" xml:space="preserve">
<rect x="6.2" y="4.2" style="fill:#F4F4F4;stroke:#BA2E2E;" width="10.8" height="11.5"/>
<g>
	<path style="fill:#BA2E2E;" d="M4.1,17.3V7.9L3.5,8.2l-2-2l10.2-5.4l10.1,5.4l-2,2.1L19,7.9v9.3H4.1z M16.1,14.5l0.1-7.6l-4.6-2.3
		L6.9,6.8l0,7.6L16.1,14.5z"/>
	<path style="fill:#F4F4F4;" d="M11.6,1.3l9.3,5l-1.3,1.3l-1.1-0.5v9.6H4.6V7.1L3.6,7.6L2.3,6.3L11.6,1.3 M16.6,15l0.1-8.4l-5.1-2.5
		L6.4,6.5l0,8.4L16.6,15 M11.6,0.2l-0.5,0.3l-9.3,5L0.6,6l1,1l1.3,1.3l0.5,0.5l0.3-0.1v8.1v1h1h13.9h1v-1V8.7l0.3,0.1l0.5-0.5
		L21.6,7l0.9-1l-1.2-0.6l-9.3-5L11.6,0.2L11.6,0.2z M7.4,7.1l4.2-1.9l4.1,2l0,6.8l-8.2,0L7.4,7.1L7.4,7.1z"/>
</g>
<g>
	<path style="fill:#BA2E2E;" d="M4,17.2V7.8L3.4,8.1l-2-2l10.2-5.4l10.1,5.4l-2,2.1l-0.7-0.3v9.3H4z M15.9,14.2l0-7.5l-4.5-2.2
		L7,6.7l0,7.5L15.9,14.2z"/>
	<path style="fill:#F4F4F4;" d="M11.5,1.2l9.3,5l-1.3,1.3l-1.1-0.5v9.6H4.5V7.1L3.5,7.5L2.2,6.2L11.5,1.2 M16.4,14.8l0-8.3L11.5,4
		l-5,2.3l0,8.4L16.4,14.8 M11.5,0.1L11,0.4l-9.3,5L0.5,6l1,1l1.3,1.3l0.5,0.5l0.3-0.1v8.1v1h1h13.9h1v-1V8.6l0.3,0.1l0.5-0.5
		l1.3-1.3l0.9-1l-1.2-0.6l-9.3-5L11.5,0.1L11.5,0.1z M7.5,7l4-1.9l4,2l0,6.7l-7.9,0L7.5,7L7.5,7z"/>
</g>
</svg>
